!!!COM:	Martini, Johannes
!!!CDT:	~1440///-~1497//
!!!OTL:	Domine exaudi orationem meam
!!!AGN:	Motet
!!!SCT:	Mar2034
!!!SCA:	Mar2034
!!!voices:	3
**kern	**kern	**kern
*staff3	*staff2	*staff1
*Ivox	*Ivox	*Ivox
*I"Tenor	*I"Faulx bourdon	*I"Superius
*I'T	*I'Faulx bourdon	*I'S
*>[A,B,C,D,E,F,G,H,I,J,K,L,M,N]	*>[A,B,C,D,E,F,G,H,I,J,K,L,M,N]	*>[A,B,C,D,E,F,G,H,I,J,K,L,M,N]
*>A	*>A	*>A
*clefGv2	*clefGv2	*clefG2
*k[]	*k[]	*k[]
*M2/1	*M2/1	*M2/1
*met(C)	*met(C)	*met(C)
=1-	=1-	=1-
!!LO:TX:Z=8:t=Choir 1
!!section: Auribus percipe
!!!OMD: Auribus percipe
1A	1e	1a
2c\	2e\	2a/
2c\	2e\	2a/
=2	=2	=2
2c\	2e\	2a/
2c\	2e\	2a/
1A	1e	1a
=3	=3	=3
1c	1e	1a
2c\	2e\	2a/
2c\	[2e\	[2a/
=4	=4	=4
1c	2e\]	2a/]
.	2e\	2a/
2c\	2e\	2a/
[2d\	[2f\	[2b\
=5	=5	=5
2d\]	2f\]	2b\]
2c\	1e	1a
1B	.	.
.	2d\	2g#i/
=6	=6	=6
1A	1e	1a
1r	1r	1r
=7	=7	=7
1c	1e	1a
1c	1e	1a
=8	=8	=8
2c\	2e\	2a/
2c\	2e\	2a/
2c\	2e\	2a/
2c\	2e\	2a/
=9	=9	=9
1c	1e	1a
1c	1e	1a
=10	=10	=10
2c\	2e\	2a/
2c\	2e\	2a/
1c	1e	1a
=11	=11	=11
1B	1d	1g
2c\	2e\	2a/
2d\	2f\	2b\
=12	=12	=12
2B\	2d\	2g/
1c	1e	1a
4B\	4d\	4g/
4A/	4c\	4f/
=13	=13	=13
2G/	2B\	2e/
1A	1c	1f
2G/	[2B\	[2e/
=14	=14	=14
1F	2B\]	2e/]
.	2A/	2d/
1El	1Bl	1el
=15||	=15||	=15||
*>B	*>B	*>B
!!section: Et non intres
!!!OMD: Et non intres
!!LO:TX:Z=8:t=Choir 2
1A	0r	1a
2c\	.	2a/
2c\	.	2a/
=16	=16	=16
1c	0r	1a
2c\	.	2a/
2c\	.	2a/
=17	=17	=17
2c\	0r	2a/
2c\	.	2a/
1c	.	1a
=18	=18	=18
1B	0r	1g
2c\	.	2a/
[2d\	.	[2b\
=19	=19	=19
2d\]	0r	2b\]
2c\	.	1a
1B	.	.
.	.	2g#i/
=20	=20	=20
1A	0r	1a
1r	.	1r
=21	=21	=21
1c	0r	1a
1c	.	1a
=22	=22	=22
1c	0r	1a
1c	.	1a
=23	=23	=23
2c\	0r	2a/
2c\	.	2a/
2c\	.	2a/
2c\	.	2a/
=24	=24	=24
1c	0r	1a
1B	.	1g
=25	=25	=25
2c\	0r	2a/
2d\	.	2b\
2B\	.	2g/
[2c\	.	[2a/
=26	=26	=26
2c\]	0r	2a/]
4B\	.	4g/
4A/	.	4f/
2G/	.	2e/
[2A/	.	[2f/
=27	=27	=27
2A/]	0r	2f/]
2G/	.	1e
1F	.	.
.	.	2d/
=28	=28	=28
0El	0r	0el
=29||	=29||	=29||
*>C	*>C	*>C
!!section: Quia persecutus
!!!OMD: Quia persecutus
!!LO:TX:Z=8:t=Choir 1
1A	1e	1a
1c	1e	1a
=30	=30	=30
2c\	2e\	2a/
2c\	2e\	2a/
2c\	2e\	2a/
2c\	2e\	2a/
=31	=31	=31
1A	1e	1a
1c	1e	1a
=32	=32	=32
2c\	2e\	2a/
2c\	2e\	2a/
1c	1e	1a
=33	=33	=33
1B	1d	1g
2A/	2c\	2f/
[2d\	[2f\	[2b-i\
=34	=34	=34
2d\]	2f\]	2b-\]
2c\	1e	1a
1B	.	.
.	2d\	2g/
=35	=35	=35
1A	1e	1a
1r	1r	1r
=36	=36	=36
2c\	2e\	2a/
2c\	2e\	2a/
2c\	2e\	2a/
2c\	2e\	2a/
=37	=37	=37
1c	1e	1a
1B	1d	1g
=38	=38	=38
2c\	2e\	2a/
2d\	2f\	2b\
2B\	2d\	2g/
[2c\	[2e\	[2a/
=39	=39	=39
2c\]	2e\]	2a/]
4B\	4d\	4g/
4A/	4c\	4f/
2G/	2B\	2e/
[2A/	[2c\	[2f/
=40	=40	=40
2A/]	2c\]	2f/]
2G/	1B	1e
1F	.	.
.	2A/	2d/
=41	=41	=41
0El	0Bl	0el
=42||	=42||	=42||
*>D	*>D	*>D
!!LO:TX:Z=8:t=Choir 2
!!section: Collocavit me
!!!OMD: Collocavit me
1c	0r	1a
2c\	.	2a/
2c\	.	2a/
=43	=43	=43
2c\	0r	1a
2c\	.	.
1c	.	2a/
.	.	2a/
=44	=44	=44
2c\	0r	2a/
2c\	.	2a/
1A	.	1a
=45	=45	=45
2c\	0r	2a/
2c\	.	2a/
2c\	.	2a/
2c\	.	2a/
=46	=46	=46
1c	0r	1a
2d\	.	2b\
[2c\	.	[2a/
=47	=47	=47
2c\]	0r	2a/]
2B\	.	1g
1A	.	.
.	.	2f#i/
=48	=48	=48
1G	0r	1g
1r	.	1r
=49	=49	=49
1c	0r	1a
2c\	.	2a/
2c\	.	2a/
=50	=50	=50
2c\	0r	2a/
2c\	.	2a/
1c	.	1a
=51	=51	=51
2c\	0r	2a/
2c\	.	2a/
1c	.	1a
=52	=52	=52
1B	0r	1g
2c\	.	2a/
[2d\	.	[2b\
=53	=53	=53
2d\]	0r	2b\]
2c\	.	1a
1B	.	.
.	.	2g#i/
=54	=54	=54
1A	0r	1a
1r	.	1r
=55	=55	=55
1c	0r	1a
1B	.	1g
=56	=56	=56
2c\	0r	2a/
2d\	.	2b\
2B\	.	2g/
[2c\	.	[2a/
=57	=57	=57
2c\]	0r	2a/]
4B\	.	4g/
4A/	.	4f/
2G/	.	2e/
[2A/	.	[2f/
=58	=58	=58
2A/]	0r	2f/]
2G/	.	1e
1F	.	.
.	.	2d/
=59	=59	=59
0El	0r	0el
=60||	=60||	=60||
*>E	*>E	*>E
!!section: Memor fui
!!!OMD: Memor fui
!!LO:TX:Z=8:t=Choir 1
1c	1e	1a
2c\	2e\	2a/
2c\	2e\	2a/
=61	=61	=61
1c	1e	1a
2c\	2e\	2a/
2c\	2e\	2a/
=62	=62	=62
1c	1e	1a
2c\	2e\	2a/
2c\	2e\	2a/
=63	=63	=63
1c	1e	1a
1B	1d	1g
=64	=64	=64
1c	2r	2r
.	1e	1a
2c\	.	.
2c\	2e\	2a/
=65	=65	=65
1c	2e\	2a/
.	2e\	2a/
1c	1e	1a
=66	=66	=66
1c	1e	1a
2c\	2e\	2a/
2c\	2e\	2a/
=67	=67	=67
1c	1e	1a
1B	1d	1g
=68	=68	=68
2A/	2c\	2f/
1d	1f	1b-i
2c\	[2e\	[2a/
=69	=69	=69
1B	2e\]	2a/]
.	2d\	2g/
1A	1e	1a
=70	=70	=70
1r	1r	1r
2c\	2e\	2a/
2c\	2e\	2a/
=71	=71	=71
1c	1e	1a
1c	1e	1a
=72	=72	=72
2B\	2d\	2g/
2A/	2c\	2f/
2B\	2d\	2g/
[2c\	[2e\	[2a/
=73	=73	=73
2c\]	2e\]	2a/]
4B\	4d\	4g/
4A/	4c\	4f/
2G/	2B\	2e/
[2A/	[2c\	[2f/
=74	=74	=74
2A/]	2c\]	2f/]
2G/	1B	1e
1F	.	.
.	2A/	2d/
=75	=75	=75
0El	0Bl	0el
=76||	=76||	=76||
*>F	*>F	*>F
!!LO:TX:Z=8:t=Choir 2
!!section: Expandi manus
!!!OMD: Expandi manus
1c	0r	1a
2c\	.	2a/
2c\	.	2a/
=77	=77	=77
1c	0r	1a
2c\	.	2a/
2c\	.	2a/
=78	=78	=78
1c	0r	1a
2d\	.	2b\
[2c\	.	[2a/
=79	=79	=79
2c\]	0r	2a/]
2B\	.	1g
1A	.	.
.	.	2f#i/
=80	=80	=80
1G	0r	1g
1r	.	1r
=81	=81	=81
2c\	0r	2a/
2c\	.	2a/
1c	.	1a
=82	=82	=82
1c	0r	1a
2c\	.	2a/
2c\	.	2a/
=83	=83	=83
1c	0r	1a
1B	.	1g
=84	=84	=84
2c\	0r	2a/
2d\	.	2b\
2B\	.	2g/
[2c\	.	[2a/
=85	=85	=85
2c\]	0r	2a/]
4B\	.	4g/
4A/	.	4f/
2G/	.	2e/
[2A/	.	[2f/
=86	=86	=86
2A/]	0r	2f/]
2G/	.	1e
1F	.	.
.	.	2d/
=87	=87	=87
0El	0r	0el
=88||	=88||	=88||
*>G	*>G	*>G
!!section: Velociter exaudi
!!!OMD: Velociter exaudi
!!LO:TX:Z=8:t=Choir 1
1A	1e	1a
2c\	2e\	2a/
2c\	2e\	2a/
=89	=89	=89
1c	1e	1a
1B	1d	1g
=90	=90	=90
2A/	2c\	2f/
2B\	2d\	2g/
2c\	2e\	2a/
[2d\	[2f\	[2b\
=91	=91	=91
2d\]	2f\]	2b\]
2c\	1e	1a
1B	.	.
.	2d\	2g#i/
=92	=92	=92
1A	1e	1a
1r	1r	1r
=93	=93	=93
1c	1e	1a
2c\	2e\	2a/
2c\	2e\	2a/
=94	=94	=94
1c	1e	1a
2B\	2d\	2g/
[2c\	[2e\	[2a/
=95	=95	=95
2c\]	2e\]	2a/]
4B\	4d\	4g/
4A/	4c\	4f/
2G/	2B\	2e/
[2A/	[2c\	[2f/
=96	=96	=96
2A/]	2c\]	2f/]
2G/	1B	1e
1F	.	.
.	2A/	2d/
=97	=97	=97
0El	0Bl	0el
=98||	=98||	=98||
*>H	*>H	*>H
!!LO:TX:Z=8:t=Choir 2
!!section: Non avertas
!!!OMD: Non avertas
1c	0r	1a
2c\	.	2a/
2c\	.	2a/
=99	=99	=99
1c	0r	1a
1c	.	1a
=100	=100	=100
2c\	0r	2a/
2c\	.	2a/
1B	.	1g
=101	=101	=101
2c\	0r	2a/
1d	.	1b
2c\	.	[2a/
=102	=102	=102
1B	0r	2a/]
.	.	2g#i/
1A	.	1a
=103	=103	=103
1r	0r	1r
2c\	.	2a/
2c\	.	2a/
=104	=104	=104
2c\	0r	2a/
2c\	.	2a/
2c\	.	2a/
2c\	.	2a/
=105	=105	=105
1c	0r	1a
1c	.	1a
=106	=106	=106
1c	0r	1a
1B	.	1g
=107	=107	=107
1c	0r	1a
2B\	.	2g/
[2A/	.	[2f/
=108	=108	=108
2A/]	0r	2f/]
2G/	.	1e
1F	.	.
.	.	2d/
=109	=109	=109
0El	0r	0el
=110||	=110||	=110||
*>I	*>I	*>I
!!LO:TX:Z=8:t=Choir 1
!!section: Auditam fac
!!!OMD: Auditam fac
1A	1e	1a
2c\	2e\	2a/
2c\	2e\	2a/
=111	=111	=111
1c	1e	1a
2c\	2e\	2a/
2c\	2e\	2a/
=112	=112	=112
1c	1e	1a
1B	1d	1g
=113	=113	=113
1c	1e	1a
2B\	2d\	2g/
2c\	2e\	2a/
=114	=114	=114
2d\	2f\	2b\
1e	1g	1cc
[2d\	[2f\	[2b\
=115	=115	=115
2d\]	2f\]	2b\]
2c\	1e	1a
1B	.	.
.	2d\	2g#i/
=116	=116	=116
1A	1e	1a
1r	1r	1r
=117	=117	=117
1c	1e	1a
2c\	2e\	2a/
2c\	2e\	2a/
=118	=118	=118
1c	1e	1a
2B\	2d\	2g/
[2c\	[2e\	[2a/
=119	=119	=119
2c\]	2e\]	2a/]
4B\	4d\	4g/
4A/	4c\	4f/
2G/	2B\	2e/
[2A/	[2c\	[2f/
=120	=120	=120
2A/]	2c\]	2f/]
2G/	1B	1e
1F	.	.
.	2A/	2d/
=121	=121	=121
0El	0Bl	0el
=122||	=122||	=122||
*>J	*>J	*>J
!!section: Notam fac
!!!OMD: Notam fac
!!LO:TX:Z=8:t=Choir 2
1c	0r	1a
2c\	.	2a/
2c\	.	2a/
=123	=123	=123
2c\	0r	2a/
2c\	.	2a/
1c	.	1a
=124	=124	=124
1c	0r	1a
1A	.	1a
=125	=125	=125
2c\	0r	2a/
2B\	.	2g/
1c	.	1a
=126	=126	=126
2c\	0r	2a/
1d	.	1b
2c\	.	[2a/
=127	=127	=127
1B	0r	2a/]
.	.	2g#i/
1A	.	1a
=128	=128	=128
1r	0r	1r
1c	.	1a
=129	=129	=129
1B	0r	1g
1A	.	1f
=130	=130	=130
2B\	0r	2g/
1c	.	1a
4B\	.	4g/
4A/	.	4f/
=131	=131	=131
2G/	0r	2e/
1A	.	1f
2G/	.	[2e/
=132	=132	=132
1F	0r	2e/]
.	.	2d/
1El	.	1el
=133||	=133||	=133||
*>K	*>K	*>K
!!section: Eripe me
!!!OMD: Eripe me
!!LO:TX:Z=8:t=Choir 1
2c\	2e\	2a/
2c\	2e\	2a/
1c	1e	1a
=134	=134	=134
1c	1e	1a
2c\	2e\	2a/
2c\	2e\	2a/
=135	=135	=135
2c\	2e\	2a/
2c\	2e\	2a/
1B	1d	1g
=136	=136	=136
1B	1d	1g
1c	1e	1a
=137	=137	=137
2c\	2e\	2a/
2c\	2e\	2a/
1c	1e	1a
=138	=138	=138
1B	1d	1g
2A/	2c\	2f/
[2d\	[2f\	[2b-i\
=139	=139	=139
2d\]	2f\]	2b-\]
2c\	1e	1a
1B	.	.
.	2d\	2g/
=140	=140	=140
1A	1e	1a
1r	1r	1r
=141	=141	=141
2c\	2e\	2a/
2c\	2e\	2a/
1c	1e	1a
=142	=142	=142
2c\	2e\	2a/
2c\	2e\	2a/
1A	1e	1a
=143	=143	=143
2c\	2e\	2a/
2c\	2e\	2a/
2c\	2e\	2a/
[2c\	[2e\	[2a/
=144	=144	=144
2c\]	2e\]	2a/]
2c\	2e\	2a/
1A	1e	1a
=145	=145	=145
2c\	2e\	2a/
2c\	2e\	2a/
2B\	2d\	2g/
2B\	2d\	2g/
=146	=146	=146
2c\	2e\	2a/
4B\	4d\	4g/
4A/	4c\	4f/
2G/	2B\	2e/
[2A/	[2c\	[2f/
=147	=147	=147
2A/]	2c\]	2f/]
2G/	1B	1e
1F	.	.
.	2A/	2d/
=148	=148	=148
0El	0Bl	0el
=149||	=149||	=149||
*>L	*>L	*>L
!!LO:TX:Z=8:t=Choir 2
!!section: Spiritus tuus
!!!OMD: Spiritus tuus
1c	0r	1a
2c\	.	2a/
2c\	.	2a/
=150	=150	=150
1c	0r	1a
1c	.	1a
=151	=151	=151
1c	0r	1a
1c	.	1a
=152	=152	=152
1c	0r	1a
2c\	.	2a/
2c\	.	2a/
=153	=153	=153
1c	0r	1a
1B	.	1g
=154	=154	=154
2c\	0r	2a/
1d	.	1b
2c\	.	[2a/
=155	=155	=155
1B	0r	2a/]
.	.	2g#i/
1A	.	1a
=156	=156	=156
1r	0r	1r
2c\	.	2a/
2c\	.	2a/
=157	=157	=157
2c\	0r	2a/
2c\	.	2a/
2c\	.	2a/
2c\	.	2a/
=158	=158	=158
2c\	0r	2a/
2c\	.	2a/
1c	.	1a
=159	=159	=159
2c\	0r	2a/
2c\	.	2a/
1c	.	1a
=160	=160	=160
1B	0r	1g
1A	.	1f
=161	=161	=161
2B\	0r	2g/
1c	.	1a
4B\	.	4g/
4A/	.	4f/
=162	=162	=162
2G/	0r	2e/
1A	.	1f
2G/	.	[2e/
=163	=163	=163
1F	0r	2e/]
.	.	2d/
1El	.	1el
=164||	=164||	=164||
*>M	*>M	*>M
!!section: Educes de tribulatione
!!!OMD: Educes de tribulatione
!!LO:TX:Z=8:t=Choir 1
2c\	2e\	2a/
2c\	2e\	2a/
1A	1e	1a
=165	=165	=165
2c\	2e\	2a/
2c\	2e\	2a/
2c\	2e\	2a/
2c\	2e\	2a/
=166	=166	=166
2c\	2e\	2a/
2c\	2e\	2a/
1A	1e	1a
=167	=167	=167
2B\	2d\	2g/
2c\	2e\	2a/
2d\	2f\	2b\
[2e\	[2g\	[2cc\
=168	=168	=168
2e\]	2g\]	2cc\]
4d\	4f\	4b\
4c\	4e\	4a/
2B\	2d\	2g/
2A/	[2e\	[2a/
=169	=169	=169
1B	2e\]	2a/]
.	2d\	2g#i/
1A	1e	1a
=170	=170	=170
1r	1r	1r
1A	1e	1a
=171	=171	=171
1c	1e	1a
1c	1e	1a
=172	=172	=172
2c\	2e\	2a/
2c\	2e\	2a/
2c\	2e\	2a/
2c\	2e\	2a/
=173	=173	=173
1c	1e	1a
2B\	2d\	2g/
[2c\	[2e\	[2a/
=174	=174	=174
2c\]	2e\]	2a/]
4B\	4d\	4g/
4A/	4c\	4f/
1G	1B	1e
=175	=175	=175
2A/	2c\	2f/
2B\	2d\	2g/
1c	1e	1a
=176	=176	=176
2B\	2d\	2g/
2c\	2e\	2a/
2d\	2f\	2b\
2B\	2d\	2g/
=177	=177	=177
2c\	2e\	2a/
4B\	4d\	4g/
4A/	4c\	4f/
2G/	2B\	2e/
[2A/	[2c\	[2f/
=178	=178	=178
2A/]	2c\]	2f/]
2G/	1B	1e
1F	.	.
.	2A/	2d/
=179	=179	=179
0El	0Bl	0el
=180||	=180||	=180||
*>N	*>N	*>N
!!LO:TX:Z=8:t=Choir 2
!!section: Et perdes omnes
!!!OMD: Et perdes omnes
1c	0r	1a
2c\	.	2a/
2c\	.	2a/
=181	=181	=181
1c	0r	1a
1c	.	1a
=182	=182	=182
1c	0r	1a
2c\	.	2a/
2c\	.	2a/
=183	=183	=183
1A	0r	1a
1c	.	2r
.	.	2a/
=184	=184	=184
2B\	0r	2g/
2A/	.	2f/
1B	.	1g
=185	=185	=185
1A	0r	1a
1r	.	1r
=186	=186	=186
2A/	0r	2a/
2c\	.	2a/
1c	.	1a
=187	=187	=187
2c\	0r	2a/
2c\	.	2a/
2c\	.	2a/
2c\	.	2a/
=188	=188	=188
1c	0r	1a
1B	.	1g
=189	=189	=189
1A	0r	1f
2B\	.	2g/
[2c\	.	[2a/
=190	=190	=190
2c\]	0r	2a/]
4B\	.	4g/
4A/	.	4f/
2G/	.	2e/
[2A/	.	[2f/
=191	=191	=191
2A/]	0r	2f/]
2G/	.	1e
1F	.	.
.	.	2d/
=192	=192	=192
0El	0r	0el
==	==	==
*-	*-	*-
!!!RDF**kern: l=long note in original notation
!!!RDF**kern: i=editorial accidental
!!!ENC:	Chris Gage 03-23-2014
!!!END:	2014/10/09/
!!!EED:	Jesse Rodin
!!!EEV:	2014/10/17/
!!!ONB:	Translated from MusicXML and edited on 2014/10/17/ by Craig Sapp
!!muse2ps: C^@{COM}^i2I150v85,85,150Q16
